X:1
T:Eternal King, LM
T:Eternal King, LM
T:Anthony Johnson Showalter, 1923
T:Public Domain Courtesy of the Cyber Hymnal™
C:Anthony Johnson Showalter, 1923
Z:Public Domain
Z:Courtesy of the Cyber Hymnal™
%%score ( 1 2 ) ( 3 4 )
L:1/8
Q:1/4=104
M:4/4
K:Eb
V:1 treble 
V:2 treble 
V:3 bass 
V:4 bass 
V:1
 (EF) | [EG]2 [FA]2 [GB]2 E2 | [EF]2 [DG]2 E2 (G=A) | [FB]2 [Fc]2 [Fd]2 [Ee]2 | %4
 [Gc]2 d2 [DB]2 (cB) | [EB]2 [FA]2 G2 (cB) | [EB]2 [FA]2 G2 (cB) | [Ee]2 [Ae]2 [Gf]2 ([GB][FA]) | %8
 [EG]2 [DF]2 !fermata!E2 |] %9
V:2
 E2 | x6 E2 | x4 E2 E2 | x8 | x2 (FE) x D2 x | x4 G2 D2 | x4 G2 D2 | x8 | x4 E2 |] %9
V:3
 (G,A,) | (B,E) (DC) [E,B,]2 [G,,B,]2 | [A,,C]2 (B,A,) [E,G,]2 (B,C) | %3
 [D,B,]2 [C,=A,]2 [B,,B,]2 [G,B,]2 | [E,B,]2 [F,=A,]2 [B,,B,]2 [A,B,]2 | %5
 [G,B,]2 (CD) [E,E]2 [A,B,]2 | [G,B,]2 (CD) [E,E]2 [A,B,]2 | [G,B,]2 [F,A,]2 [G,B,]2 [A,C]2 | %8
 B,2 [B,,A,]2 !fermata![E,G,]2 |] %9
V:4
 E,2 | E,2 E,2 x4 | x2 B,,2 x E,2 x | x8 | x8 | x2 F,2 x4 | x2 F,2 x4 | x8 | [B,,B,]2 x4 |] %9

